X:1
T:Beautiful Home
T:Beautiful Home
T:John J. Mathews
T:John J. Mathews, 1900
T:Public Domain Courtesy of the Cyber Hymnal™
T:Public Domain Courtesy of the Cyber Hymnal™
C:John J. Mathews
Z:Public Domain
Z:Courtesy of the Cyber Hymnal™
%%score ( 1 2 ) ( 3 4 )
L:1/8
Q:1/4=95
M:4/4
K:A
V:1 treble 
V:2 treble 
V:3 bass 
V:4 bass 
V:1
 [CE]>[CE] | [EA]2 [Ec]>[EB] [FA]2 [FB]>[FA] | [DF]>[EG] [DF]>[DF] [CE]2 [CE]>[CE] | %3
w: 1.~There’s a|beau- ti- ful home Far be-|yond the star- ry sky, Christ has|
w: 2.~There I’ll|sing with the an- gels Of|Mos- es and the Lamb; While the|
w: 3.~I will|dwell in that home With the|loved ones gone be- fore, And with|
 [EA]2 [EA]>[EB] [Ec]2 [Fc]>[A^d] | [Ge]6 [CE]>[CE] | [EA]2 [Ec]>[EB] [FA]2 [FB]>[FA] | %6
w: gone to pre- pare o- ver|there. I shall|dwell in that home In the|
w: ag- es e- ter- nal- ly|fly; For the|Lord will be there With the|
w: them all its bless- ed- ness|share; And for-|ev- er the Sav- ior of|
 ([DF]>[EG]) [FA]>[DF] [CE]2 [CE]>[CE] | [EA]2 [EA]>[FB] [Ec]2 [Ec]>[DB] | [CA]6 || %9
w: sweet * by and by; How I|long, how I long to be|there!|
w: saved~from * ev- ery land, In that|home in the sweet by and|by.|
w: sin- * ners a- dore, And be|hap- py and blest o- ver|there.|
"^Refrain" [Ac]>[Bd] | [ce]6 [ce]>[Bd] | [Ac]6 E>E | [EA]>[EA] [EA]>[EB] [Ac]2 [Ac]>[Ae] | %13
w: ||||
w: Then I’ll|sing, sweet- ly|sing, In the|man- sions where the blest nev- er|
w: ||||
 [GB]6 [Ac]>[Bd] | [ce]6 [ce]>[Bd] | [Ac]6 E>E | [EA]2 A>[AB] [Ac]2 [Gc]>[GB] | A6 E2 |] %18
w: |||||
w: die; Then I’ll|sing, sweet- ly|sing, In that|home in the sweet by and|by. *|
w: |||||
V:2
 x2 | x8 | x8 | x8 | x8 | x8 | x8 | x8 | x6 || x2 | x8 | x6 E>E | x8 | x8 | x8 | x6 E>E | %16
 x2 A3/2 x9/2 | A2 F>F x4 |] %18
V:3
 [A,,A,]>[A,,A,] | [A,,C]2 [A,,A,]>[C,A,] [D,A,]2 [D,A,]>[D,A,] | %2
w: ||
 [D,A,]>[D,D] [D,D]>[D,A,] [A,,A,]2 [A,,A,]>[A,,A,] | [A,,C]2 [C,A,]>[E,G,] A,2 [F,A,]>[F,A,] | %4
w: |* * * Then * *|
 [E,B,]6 [A,,A,]>[A,,A,] | [A,,C]2 [A,,A,]>[C,A,] [D,A,]2 [D,A,]>[D,A,] | %6
w: ||
 ([D,A,]>[D,D]) [D,D]>[D,A,] [A,,A,]2 [A,,A,]>[A,,A,] | %7
w: |
 [A,,C]2 [C,A,]>[D,A,] [E,A,]2 [E,G,]>[E,G,] | [A,,A,]6 || z2 | z2 [A,E]>[A,E] [A,E]2 z2 | %11
w: |||I’ll sing, sweet-|
 z2 [A,E]>[A,E] [A,E]2 [A,C]>[A,C] | [A,C]>[A,C] [A,C]>[A,D] [A,E]2 [A,E]>[C,E] | %13
w: ||
 [E,E]2 [E,E]>[E,E] [E,E]2 z2 | z2 [A,E]>[A,E] [A,E]2 z2 | z2 [A,E]>[A,E] [A,E]2 [A,C]>[A,C] | %16
w: * ly sing, nev-|er die, by||
 [A,C]2 [F,C]>[F,^D] [E,E]2 [E,E]>[E,=D] | C2 D>D C2 x2 |] %18
w: |* and by *|
V:4
 x2 | x8 | x8 | x4 A,2 x2 | x8 | x8 | x8 | x8 | x6 || x2 | x8 | x8 | x8 | x8 | x8 | x8 | x8 | %17
 [A,,A,]6 x2 |] %18

